X: 3714
T: Billy's
R: reel
M: 4/4
K: Dmajor
|:D3 D- D2 DD|A,B,B,/B,/B, B,A,B,D|DEED DEE/E/E|EDEF AFEF|
D3 D- D2 DD|A,B,B,/B,/B, B,A,B,D|DEEF AFEF|DB,A,B, A,B,CE:|
|:d3 c- cdcd|BGG/G/G GABG|AdcA dcAG|DEE/E/E EDCE|
[1 d3 c- cdcd|BGG/G/G GABG|AAGA F3 E|EDB,D A,B,CE:|
[2 D3 D- DDED|F3 F- FFGE|EFEF GFGA|zA,A,A, A,B,CE||

